assets/images/svg/phone.svg

<svg width="14" height="13" viewBox="0 0 14 13" fill="none" xmlns="http://www.w3.org/2000/svg">
<path d="M12.8125 9.0625C13.5156 9.76562 13.5156 10.5391 12.8125 11.3828C12.5312 11.7109 12.25 11.957 11.9688 12.1211C11.7109 12.2852 11.4883 12.3789 11.3008 12.4023C11.1367 12.4258 10.8906 12.4375 10.5625 12.4375C9.64844 12.4375 8.55859 11.9688 7.29297 11.0312C6.28516 10.3047 5.37109 9.51953 4.55078 8.67578C3.49609 7.57422 2.57031 6.32031 1.77344 4.91406C1.07031 3.60156 0.859375 2.52344 1.14062 1.67969C1.28125 1.23438 1.60938 0.847656 2.125 0.519531L2.16016 0.484375C2.58203 0.203125 2.95703 0.0625 3.28516 0.0625C3.73047 0.0625 4.12891 0.273438 4.48047 0.695312L4.51562 0.730469C5.05469 1.43359 5.42969 1.98438 5.64062 2.38281C5.99219 3.10938 5.98047 3.73047 5.60547 4.24609C5.32422 4.62109 5.18359 4.89062 5.18359 5.05469C5.18359 5.125 5.33594 5.33594 5.64062 5.6875L5.67578 5.72266C6.23828 6.35547 6.54297 6.69531 6.58984 6.74219C6.61328 6.74219 6.63672 6.75391 6.66016 6.77734C6.68359 6.80078 6.70703 6.82422 6.73047 6.84766L6.80078 6.91797C7.26953 7.38672 7.60938 7.71484 7.82031 7.90234L7.85547 7.9375C8.06641 8.125 8.20703 8.21875 8.27734 8.21875C8.39453 8.21875 8.73438 8.04297 9.29688 7.69141C9.46094 7.57422 9.66016 7.51562 9.89453 7.51562C10.3164 7.51562 10.8203 7.69141 11.4062 8.04297C12.0156 8.39453 12.4844 8.73438 12.8125 9.0625Z" fill="#9EDD05"/>
</svg>

<svg version="1.2" xmlns="http://www.w3.org/2000/svg" viewBox="0 0 14 13" width="14" height="13"><style>.a{fill:#0bce5a}</style><path class="a" d="m12.8 9.1q1.1 1 0 2.3-0.4 0.5-0.8 0.7-0.4 0.3-0.7 0.3-0.2 0-0.7 0-1.4 0-3.3-1.4-1.5-1.1-2.7-2.3-1.6-1.7-2.8-3.8-1.1-2-0.7-3.2 0.3-0.7 1-1.2h0.1q0.6-0.4 1.1-0.4 0.7 0 1.2 0.6 0.8 1.1 1.1 1.7 0.6 1.1 0 1.8-0.4 0.6-0.4 0.9 0 0.1 0.4 0.6h0.1q0.8 1 0.9 1 0 0 0.1 0.1 0 0 0 0l0.1 0.1q0.7 0.7 1 1h0.1q0.3 0.3 0.4 0.3 0.2 0 1-0.5 0.2-0.2 0.6-0.2 0.6 0 1.5 0.5 0.9 0.6 1.4 1.1z"/></svg>
